dist/img/common/svg/ic_vk-bg.svg

<svg width="46" height="46" viewBox="0 0 46 46" fill="none" xmlns="http://www.w3.org/2000/svg">
<rect width="46" height="46" rx="22.5" fill="#2960EC"/>
<path d="M33.1932 27.2566C32.6972 26.7301 32.1338 26.2583 31.5888 25.8019C31.3951 25.6396 31.1947 25.4719 31.0015 25.305C30.4471 24.8255 30.4269 24.6453 30.8658 24.1007C31.1696 23.7252 31.4916 23.3493 31.8031 22.9857C32.0855 22.6558 32.3777 22.3147 32.6576 21.9725L32.7152 21.9021C33.2503 21.2472 33.8037 20.57 34.0982 19.7531C34.1746 19.5376 34.255 19.2204 34.0713 18.9552C33.8879 18.6902 33.5319 18.6094 33.2801 18.5716C33.1555 18.5529 33.0319 18.5504 32.917 18.5504L29.4127 18.5482L29.3837 18.548C28.8538 18.548 28.4967 18.7688 28.2921 19.2232C28.0968 19.6574 27.8822 20.1197 27.6374 20.5593C27.1501 21.4346 26.5313 22.4429 25.6357 23.2837L25.5978 23.3195C25.4921 23.42 25.3723 23.5339 25.2847 23.5339C25.2713 23.5339 25.2567 23.5316 25.2402 23.527C25.0546 23.4631 24.9301 23.0659 24.9358 22.8811C24.9359 22.8786 24.9359 22.876 24.9359 22.8735L24.9335 19.291C24.9335 19.2785 24.9325 19.2662 24.9306 19.2539C24.8415 18.6715 24.644 18.309 23.898 18.1798C23.8781 18.1763 23.8578 18.1746 23.8377 18.1746H20.1938C19.6001 18.1746 19.273 18.388 18.9655 18.7074C18.8825 18.7928 18.7098 18.9706 18.7954 19.1862C18.8823 19.4051 19.1643 19.4519 19.2562 19.4671C19.712 19.5438 19.969 19.7904 20.0418 20.2214C20.1688 20.9697 20.1845 21.7684 20.0909 22.7351C20.0648 23.0037 20.0133 23.2112 19.9282 23.3885C19.9085 23.4299 19.8385 23.5649 19.7671 23.5649C19.7444 23.5649 19.6787 23.557 19.5592 23.4842C19.2765 23.3129 19.0697 23.0685 18.8286 22.7666C18.0084 21.7413 17.32 20.6118 16.7238 19.3128C16.5027 18.8346 16.0898 18.5669 15.5606 18.559C14.9791 18.5512 14.4519 18.5475 13.949 18.5475C13.3996 18.5475 12.8903 18.5519 12.3929 18.5611C11.9671 18.5677 11.6726 18.6806 11.5176 18.8969C11.3624 19.1133 11.3725 19.3976 11.5477 19.7417C12.9498 22.4988 14.221 24.5034 15.6698 26.2418C16.6849 27.4582 17.7031 28.3002 18.8738 28.8914C20.1071 29.5154 21.4893 29.8188 23.0991 29.8188C23.2816 29.8188 23.4703 29.8149 23.6606 29.807C24.596 29.7667 24.9431 29.4672 24.9869 28.6616C25.0078 28.2499 25.0587 27.8182 25.2876 27.4499C25.4319 27.2179 25.5666 27.2179 25.6109 27.2179C25.6962 27.2179 25.8018 27.2526 25.9154 27.3177C26.119 27.4352 26.2935 27.5927 26.4367 27.7303C26.5714 27.861 26.7046 27.993 26.838 28.1251C27.1257 28.4101 27.4232 28.7048 27.7341 28.9843C28.4144 29.5965 29.1638 29.8658 30.0245 29.8073H33.2375C33.2443 29.8073 33.2513 29.8071 33.2581 29.8067C33.5782 29.7881 33.8554 29.631 34.0188 29.3758C34.2211 29.0597 34.2171 28.6564 34.0079 28.2968C33.7707 27.8901 33.4628 27.5427 33.1932 27.2566Z" fill="white"/>
</svg>

<svg width="46" height="46" viewBox="0 0 46 46" fill="none" xmlns="http://www.w3.org/2000/svg"><rect width="46" height="46" rx="22.5" fill="#2960EC"/><path d="M33.193 27.257c-.496-.527-1.06-.999-1.604-1.455-.194-.162-.394-.33-.587-.497-.555-.48-.575-.66-.136-1.204.304-.376.626-.752.937-1.115.283-.33.575-.671.855-1.014l.057-.07c.535-.655 1.089-1.332 1.383-2.149.077-.215.157-.533-.027-.798-.183-.265-.54-.346-.79-.383a2.438 2.438 0 00-.364-.022l-3.504-.002h-.03c-.53 0-.886.22-1.09.675-.196.434-.41.897-.656 1.336-.487.876-1.106 1.884-2.001 2.725l-.038.036c-.106.1-.226.214-.313.214a.166.166 0 01-.045-.007c-.185-.064-.31-.461-.304-.646v-.008l-.003-3.582a.242.242 0 00-.002-.037c-.09-.582-.287-.945-1.033-1.074a.35.35 0 00-.06-.005h-3.644c-.594 0-.921.213-1.229.532-.082.086-.255.264-.17.48.087.218.37.265.461.28.456.077.713.323.786.754.127.749.142 1.547.049 2.514a1.908 1.908 0 01-.163.654c-.02.04-.09.176-.16.176-.024 0-.09-.008-.209-.08-.283-.172-.49-.416-.73-.718a16.395 16.395 0 01-2.105-3.454 1.244 1.244 0 00-1.163-.754 116.83 116.83 0 00-1.612-.012c-.55 0-1.059.005-1.556.014-.426.007-.72.12-.875.336-.156.216-.146.5.03.845 1.402 2.757 2.673 4.761 4.122 6.5 1.015 1.216 2.033 2.058 3.204 2.65 1.233.623 2.615.927 4.225.927.183 0 .371-.004.562-.012.935-.04 1.282-.34 1.326-1.145.02-.412.072-.844.3-1.212.145-.232.28-.232.324-.232a.65.65 0 01.304.1c.204.117.379.275.522.412l.401.395c.288.285.585.58.896.86.68.611 1.43.88 2.29.822h3.234a.953.953 0 00.76-.431c.203-.316.2-.72-.01-1.08-.237-.406-.545-.753-.815-1.04z" fill="#fff"/></svg>
